modules/themify-icons/icons/layout-tab-window.svg

<?xml version="1.0" encoding="utf-8"?>
<!-- Generated by IcoMoon.io -->
<!DOCTYPE svg PUBLIC "-//W3C//DTD SVG 1.1//EN" "http://www.w3.org/Graphics/SVG/1.1/DTD/svg11.dtd">
<svg version="1.1" xmlns="http://www.w3.org/2000/svg" xmlns:xlink="http://www.w3.org/1999/xlink" width="17" height="17" viewBox="0 0 17 17">
<g>
</g>
	<path d="M12 2h-12v14h17v-14h-5zM16 3v2h-4v-2h4zM11 3v2h-5v-2h5zM1 3h4v2h-4v-2zM16 15h-15v-9h15v9z" fill="#000000" />
</svg>

<svg xmlns="http://www.w3.org/2000/svg" width="17" height="17"><path d="M12 2H0v14h17V2h-5zm4 1v2h-4V3h4zm-5 0v2H6V3h5zM1 3h4v2H1V3zm15 12H1V6h15v9z"/></svg>
